!!!SOCIAL_FUNCTION:	dream songs
!!!PDT:	1913
!!!OTL: No_138_My_Body_Lies_in_the_East.krn
!!!REG: Great_Lakes
!!!LANG: Non-Tone
!!!LING_GROUP: Algonquin
**kern	**kern
*staff2	*staff1
=1-	=1-
*clefF4	*clefF4
*k[b-e-a-d-]	*k[b-e-a-d-]
*M2/4	*M2/4
8r	8r
8GG/	8c\
8GG/L	8c\L
8GG/J	8c\J
=2	=2
8GG/L	4.c\
8GG/J	.
8GG/L	.
8GG/J	8d-\
=3	=3
2r	4c\
.	12c\L
.	12c\
.	12c\J
=4	=4
2r	8.A-\L
.	16c\Jk
.	12c\L
.	12c\
.	12c\J
=5	=5
2r	4.A-\
.	8F\
=6||	=6||
*M3/4	*M3/4
2.r	2.F\
=7	=7
2.r	4.F\
.	8A-\
.	12A-\L
.	12c\
.	12c\J
=8||	=8||
*M2/4	*M2/4
2r	8..A-\L
.	32B-\Jkk
.	8.A-\L
.	16F\Jk
=9||	=9||
*M3/4	*M3/4
2.r	4F\
.	8.D-\L
.	16F\Jk
.	12F\L
.	12A-\
.	12A-\J
=10	=10
2.r	4.F\
.	8D-\
.	12F\L
.	[12D-\
.	12D-\J]
=11	=11
2.r	8C/L
.	8C/J
.	8.C/L
.	16C/Jk
.	12C/L
.	12C/
.	12C/J
=12	=12
2.r	4.C/
.	8AA-/
.	12C/L
.	[12AA-/
.	12AA-/J]
=13||	=13||
*M2/4	*M2/4
2r	8FF/L
.	8FF/J
.	[4FF/
=14	=14
2r	2FF/]
=15	=15
2r	8c\L
.	16c\L
.	16c\JJ
.	4c\
=16	=16
2r	2c\
=17	=17
2r	16c\LL
.	16c\
.	16.A-\
.	32c\JJk
.	12c\L
.	12c\
.	12c\J
=18	=18
2r	8.A-\L
.	16B-\Jk
.	8.A-\L
.	16F\Jk
=19	=19
2r	4F\
.	[4F\
=20||	=20||
*M3/4	*M3/4
2.r	4.F\]
.	8A-\
.	12A-\L
.	12c\
.	12c\J
=21||	=21||
*M2/4	*M2/4
2r	8..A-\L
.	32B-\Jkk
.	8.A-\L
.	16F\Jk
=22||	=22||
*M3/4	*M3/4
2.r	4F\
.	8.D-\L
.	16F\Jk
.	12F\L
.	12A-\
.	12A-\J
=23	=23
2.r	4.F\
.	8D-\
.	12F\L
.	[12D-\
.	12D-\J]
=24	=24
2.r	8C/L
.	8C/J
.	8.C/L
.	16C/Jk
.	12C/L
.	12C/
.	12C/J
=25	=25
2.r	4.C/
.	8AA-/
.	12C/L
.	(12AA-/
.	12AA-/J)
=26||	=26||
*M2/4	*M2/4
2r	8FF/L
.	8FF/J
.	[4FF/
=27	=27
2r	2FF/]
==	==
*-	*-
